X: 2
T: Fehér fuszulyka virág
M: 4/4
L: 1/4
K:D
d d d d | c<A E2 |
A<B B B | A<A A z |
G<G G G | F<F A2 |
D E E E | D<D D z |

